assets/images/zm.svg

<?xml version="1.0" encoding="UTF-8"?>
<svg xmlns="http://www.w3.org/2000/svg" xmlns:xlink="http://www.w3.org/1999/xlink" width="px" height="px" viewBox="0 0 1050 700" version="1.1">
<g id="surface1">
<rect x="0" y="0" width="1050" height="700" style="fill:rgb(9.803922%,54.117647%,0%);fill-opacity:1;stroke:none;"/>
<path style=" stroke:none;fill-rule:nonzero;fill:rgb(87.058824%,12.54902%,6.27451%);fill-opacity:1;" d="M 675 250 L 925 250 L 925 700 L 675 700 Z M 675 250 "/>
<path style=" stroke:none;fill-rule:nonzero;fill:rgb(93.72549%,49.019608%,0%);fill-opacity:1;" d="M 800 250 L 1050 250 L 1050 700 L 800 700 Z M 800 250 "/>
<path style=" stroke:none;fill-rule:nonzero;fill:rgb(0%,0%,0%);fill-opacity:1;" d="M 800 250 L 925 250 L 925 700 L 800 700 Z M 800 250 "/>
<path style="fill-rule:nonzero;fill:rgb(93.72549%,49.019608%,0%);fill-opacity:1;stroke-width:2.25;stroke-linecap:round;stroke-linejoin:round;stroke:rgb(0%,0%,0%);stroke-opacity:1;stroke-miterlimit:4;" d="M 1916.421875 168.335938 C 1916.421875 168.335938 2002.429688 134.625 2010.757812 127.679688 C 2014.546875 131.851562 1976.28125 174.242188 1902.03125 189.875 C 1969.460938 175.28125 2027.054688 129.414062 2038.796875 130.804688 C 2042.203125 131.5 2041.445312 175.632812 1886.875 213.859375 C 1993.710938 188.140625 2055.84375 140.882812 2055.085938 146.09375 C 2055.84375 147.140625 2044.476562 183.273438 1950.898438 211.421875 C 1977.039062 205.859375 2047.890625 166.25 2047.132812 173.890625 C 2049.40625 177.023438 1978.554688 260.421875 1850.507812 233.3125 C 1952.796875 257.640625 2019.09375 198.914062 2028.5625 199.953125 C 2030.460938 200.304688 2009.625 251.382812 1880.8125 254.507812 C 1942.570312 248.601562 1924.757812 254.164062 1924.757812 254.164062 C 1924.757812 254.164062 1888.390625 280.226562 1844.445312 262.507812 C 1878.921875 271.195312 1882.703125 271.539062 1883.460938 274.320312 C 1881.1875 277.789062 1852.773438 283.007812 1825.5 269.453125 C 1847.46875 277.789062 1867.171875 279.179688 1867.554688 282.3125 C 1867.171875 283.351562 1853.15625 290.648438 1840.65625 285.4375 C 1828.148438 280.226562 1712.976562 215.242188 1712.976562 215.242188 L 1909.226562 165.898438 Z M 1685.710938 344.101562 C 1668.453125 344.101562 1667.976562 358.1875 1667.976562 358.1875 C 1667.976562 358.1875 1666.554688 359.203125 1667.507812 366.03125 C 1670.351562 361.382812 1671.78125 359.9375 1671.78125 359.9375 C 1673.679688 360.226562 1681.59375 362.398438 1694.101562 353.398438 C 1682.703125 364.289062 1689.515625 368.359375 1689.515625 368.359375 C 1689.515625 368.359375 1686.820312 376.921875 1695.53125 378.664062 C 1692.835938 375.179688 1694.421875 372.132812 1694.421875 372.132812 C 1694.421875 372.132812 1706.609375 370.96875 1705.820312 357.320312 C 1706.296875 369.664062 1713.578125 372.710938 1713.578125 372.710938 C 1713.578125 372.710938 1713.578125 379.539062 1721.492188 380.117188 C 1717.21875 376.632812 1718.171875 371.257812 1718.171875 371.257812 C 1718.171875 371.257812 1728.460938 364.4375 1719.75 352.820312 C 1724.976562 350.054688 1729.25 342.359375 1729.25 342.359375 C 1729.25 342.359375 1722.132812 339.601562 1718.804688 337.28125 C 1717.21875 334.226562 1718.648438 317.53125 1718.648438 317.53125 L 1714.367188 295.890625 L 1702.179688 329.585938 C 1702.648438 324.789062 1702.96875 344.101562 1685.710938 344.101562 Z M 1685.710938 344.101562 " transform="matrix(0.5,0,0,0.5,0,0)"/>
<path style="fill-rule:nonzero;fill:rgb(93.72549%,49.019608%,0%);fill-opacity:1;stroke-width:2.25;stroke-linecap:round;stroke-linejoin:round;stroke:rgb(0%,0%,0%);stroke-opacity:1;stroke-miterlimit:4;" d="M 1770.945312 295.515625 C 1771.320312 295.859375 1783.828125 308.71875 1795.945312 308.023438 C 1800.492188 304.546875 1786.476562 296.90625 1786.476562 295.164062 C 1791.398438 299.335938 1812.234375 315.671875 1825.5 309.757812 C 1830.804688 302.8125 1816.023438 303.851562 1799.734375 285.09375 C 1811.101562 292.039062 1839.515625 307.328125 1852.773438 301.421875 C 1858.460938 295.859375 1823.226562 278.484375 1811.476562 264.9375 L 1781.171875 250.6875 L 1739.875 281.617188 Z M 1724.34375 189.882812 C 1724.34375 189.882812 1738.359375 182.234375 1794.429688 186.054688 C 1800.492188 186.75 1832.695312 175.976562 1842.929688 172.851562 C 1859.21875 170.070312 1911.117188 159.648438 1925.140625 149.914062 C 1934.992188 148.875 1922.484375 166.59375 1909.984375 170.765625 C 1896.726562 176.328125 1848.609375 191.617188 1831.5625 189.53125 C 1852.015625 189.882812 1840.65625 205.171875 1806.554688 197.867188 C 1822.84375 206.210938 1816.78125 207.601562 1816.78125 207.601562 C 1816.78125 207.601562 1787.992188 208.992188 1780.414062 203.085938 C 1799.734375 209.6875 1791.78125 212.117188 1791.78125 212.117188 C 1791.78125 212.117188 1772.078125 213.851562 1762.984375 210.03125 C 1777.007812 213.851562 1769.804688 216.289062 1769.804688 216.289062 C 1769.804688 216.289062 1758.445312 218.023438 1748.96875 214.898438 C 1739.5 211.773438 1725.101562 189.875 1724.34375 189.875 Z M 1746.828125 302.71875 L 1748.890625 336.695312 C 1748.890625 336.695312 1747.773438 338.4375 1746.828125 339.460938 C 1745.875 340.476562 1720.546875 335.828125 1724.023438 353.546875 C 1724.023438 360.804688 1724.1875 362.695312 1729.570312 366.757812 C 1728.140625 361.96875 1728.617188 358.625 1728.617188 358.625 C 1728.617188 358.625 1735.742188 362.546875 1742.710938 351.804688 C 1737.960938 362.398438 1741.28125 366.179688 1742.390625 366.46875 C 1743.5 368.359375 1740.492188 376.921875 1749.992188 376.78125 C 1746.351562 373.585938 1748.09375 368.9375 1748.09375 368.9375 C 1748.09375 368.9375 1758.070312 367.484375 1754.585938 350.929688 C 1758.226562 347.59375 1759.648438 350.78125 1759.648438 350.78125 C 1759.648438 350.78125 1760.757812 360.65625 1769.46875 358.625 C 1773.429688 360.65625 1768.835938 366.03125 1768.835938 366.03125 C 1768.835938 366.03125 1775.171875 366.179688 1777.070312 361.242188 C 1778.96875 356.304688 1781.1875 347.445312 1770.734375 343.8125 C 1769.46875 340.328125 1774.851562 340.039062 1774.851562 340.039062 C 1774.851562 340.039062 1781.5 342.070312 1783.398438 345.117188 C 1785.304688 348.171875 1784.671875 337.132812 1776.4375 335.96875 C 1766.304688 335.679688 1765.671875 333.796875 1765.671875 333.359375 C 1765.671875 332.921875 1763.929688 308.671875 1763.132812 301.703125 Z M 1746.828125 302.71875 " transform="matrix(0.5,0,0,0.5,0,0)"/>
<path style="fill-rule:nonzero;fill:rgb(93.72549%,49.019608%,0%);fill-opacity:1;stroke-width:2.25;stroke-linecap:round;stroke-linejoin:round;stroke:rgb(0%,0%,0%);stroke-opacity:1;stroke-miterlimit:4;" d="M 1782.070312 331.671875 C 1782.195312 330.117188 1764.78125 308.617188 1769.203125 305.835938 C 1773.617188 306.671875 1780.859375 316.453125 1786.71875 313.273438 C 1784.945312 309.460938 1779.703125 311.609375 1773.75 301.851562 C 1767.804688 290.820312 1766.9375 274.257812 1746.101562 256.195312 C 1759.585938 275.3125 1790.1875 286.515625 1791.484375 280.945312 C 1792.78125 275.367188 1764.539062 254.289062 1765.984375 249.210938 C 1771.601562 259.640625 1799.960938 282.890625 1820.851562 280.960938 C 1822.289062 276.484375 1803.742188 267.453125 1798.976562 259.023438 C 1785.625 250.796875 1749.90625 222.554688 1749.195312 216.007812 C 1736.195312 198.625 1728.078125 193.359375 1724.304688 191.359375 C 1722.84375 189.78125 1722.476562 188.273438 1722.1875 187.3125 C 1714.125 169.867188 1724.8125 164.203125 1731.0625 163.367188 C 1736.210938 162.84375 1737.703125 163.546875 1741.414062 161.90625 C 1737.023438 160.328125 1732.640625 158.859375 1728.257812 157.28125 C 1733.976562 161.132812 1748.578125 157.742188 1745.414062 168.828125 C 1751.820312 166.59375 1765.445312 151.71875 1729.96875 148.367188 C 1718.429688 136.21875 1670.960938 129.234375 1659.078125 182.25 C 1660.03125 182.992188 1660.523438 183.609375 1663.546875 185.671875 C 1648.554688 179.015625 1608.125 173.875 1593.554688 171.710938 C 1554.1875 161.296875 1513.3125 136.195312 1509.382812 139.28125 C 1504.125 141.421875 1533.164062 166.203125 1531.65625 166.75 C 1506.476562 153.28125 1483.46875 143.742188 1462.070312 135.0625 C 1447.007812 129.898438 1431.929688 117.882812 1430.265625 120.164062 C 1424.726562 130.695312 1454.40625 157.164062 1459.929688 160.273438 C 1465.453125 163.257812 1508.875 181.726562 1508.234375 181.960938 C 1442.828125 154.734375 1431.867188 149.796875 1428.578125 146.65625 C 1422.820312 145.46875 1408.773438 128.070312 1404.859375 129.195312 C 1402.71875 131.125 1407.015625 158.601562 1438.226562 170.9375 C 1443.3125 174.335938 1505.125 194.671875 1504.523438 196.265625 C 1504.367188 196.671875 1433.726562 169.523438 1430.976562 168.554688 C 1417.359375 163.65625 1400.648438 146.484375 1397.523438 148.414062 C 1394.539062 150.171875 1405.226562 168.757812 1418.984375 174.585938 C 1426.203125 177.5 1453.875 190.078125 1478.804688 198.078125 C 1480.398438 198.601562 1433.992188 181.9375 1411.679688 173.382812 C 1401.5625 168.234375 1396.804688 161.8125 1395.257812 163.195312 C 1392.984375 164.578125 1398.945312 192.03125 1470.640625 207.523438 C 1472.53125 208.265625 1495.875 202.453125 1494.726562 203.226562 C 1494.4375 203.414062 1471.539062 207.984375 1469.3125 207.828125 C 1467.328125 207.554688 1454.78125 209.195312 1454.554688 209.789062 C 1453.796875 211.648438 1459.101562 221.476562 1496.117188 219.429688 C 1500.851562 219.164062 1526.53125 210.851562 1524.375 212.640625 C 1523.296875 213.53125 1489.40625 223.632812 1486.820312 223.835938 C 1484.578125 224.125 1472.671875 225.265625 1472.234375 226.429688 C 1471.695312 228.015625 1481.046875 235.007812 1500.929688 236.132812 C 1518.53125 236.984375 1551.976562 226.265625 1551.304688 226.960938 C 1550.632812 227.65625 1519.0625 237.578125 1518.234375 238.1875 C 1517.09375 238.773438 1505.53125 239.351562 1505.125 240.164062 C 1504.179688 242.195312 1521.804688 257.304688 1573.914062 241.179688 C 1568.679688 247.664062 1543.421875 252.09375 1543.453125 253.265625 C 1543.335938 254.109375 1549.015625 259.148438 1557.851562 260.953125 C 1562.265625 261.851562 1568.3125 261.664062 1573.828125 260.867188 C 1583.75 259.046875 1594.203125 255.445312 1607.484375 244.1875 C 1609.070312 247.71875 1574.304688 263.859375 1575.9375 265.398438 C 1583.476562 271.804688 1608.515625 264.570312 1610.15625 263.726562 C 1611.796875 262.890625 1658.367188 238.796875 1658.210938 236.007812 C 1658.9375 239.585938 1598.164062 269.867188 1598.820312 271.109375 C 1602.71875 276.820312 1623.484375 270.8125 1624.476562 270.289062 C 1625.460938 269.765625 1650.96875 257.125 1651.664062 256.757812 C 1652.359375 256.382812 1621.695312 273.21875 1624.421875 275.78125 C 1623.101562 286.71875 1672.320312 268.234375 1676.179688 265.9375 C 1678.109375 264.78125 1652.539062 276.25 1652.46875 281.695312 C 1660.703125 294.460938 1687.070312 290.414062 1691.140625 287.601562 C 1693.171875 286.195312 1688.742188 297.09375 1690.171875 296.101562 C 1690.671875 295.898438 1695.90625 290.21875 1697.921875 286.101562 C 1697.28125 289.671875 1694.390625 295.289062 1692.703125 301.742188 C 1691.007812 308.1875 1690.53125 315.46875 1688.210938 323.195312 C 1687.679688 326.59375 1704.460938 316.5625 1702.023438 292.570312 C 1703.453125 305.046875 1696.71875 328.382812 1698.484375 329.59375 C 1702.007812 332.023438 1711.757812 317.976562 1712.742188 308.476562 C 1715.632812 313.273438 1721.710938 323.289062 1726.929688 325.59375 C 1726.367188 318.335938 1727.03125 318.664062 1724.679688 311.53125 C 1726.039062 302.0625 1726.226562 288.953125 1726.554688 274.148438 C 1740.757812 299.101562 1746.414062 309.632812 1742.453125 328.742188 C 1746.671875 330.351562 1753.414062 315.40625 1752.875 307.710938 C 1758.296875 329.09375 1781.695312 332.296875 1782.070312 331.671875 Z M 1782.070312 331.671875 " transform="matrix(0.5,0,0,0.5,0,0)"/>
<path style="fill-rule:nonzero;fill:rgb(93.72549%,49.019608%,0%);fill-opacity:1;stroke-width:2.25;stroke-linecap:round;stroke-linejoin:round;stroke:rgb(0%,0%,0%);stroke-opacity:1;stroke-miterlimit:4;" d="M 1545.578125 173.289062 C 1545.578125 173.289062 1535.914062 179.984375 1523.882812 179.59375 C 1526.890625 190.617188 1551.804688 182.148438 1551.804688 182.148438 C 1551.804688 182.148438 1539.773438 194.367188 1531.1875 196.335938 C 1536.34375 200.273438 1558.03125 198.890625 1561.679688 196.921875 C 1565.335938 194.953125 1571.773438 187.273438 1571.773438 187.273438 C 1571.773438 187.273438 1549.4375 210.90625 1546.21875 210.710938 C 1545.789062 213.46875 1569.632812 212.484375 1574.570312 208.351562 C 1579.507812 204.210938 1591.960938 198.109375 1591.960938 198.109375 C 1591.960938 198.109375 1559.320312 218.984375 1557.8125 218.984375 C 1570.054688 221.9375 1594.539062 215.4375 1610.21875 206.578125 C 1587.023438 220.757812 1584.875 223.320312 1573.0625 228.046875 C 1583.585938 230.210938 1588.953125 236.71875 1624.609375 222.53125 C 1645.007812 213.671875 1656.601562 197.515625 1656.601562 197.515625 C 1643.9375 213.078125 1623.960938 226.273438 1601.84375 239.273438 C 1600.554688 241.640625 1625.46875 251.289062 1657.25 220.953125 M 1718.242188 239.078125 C 1718.242188 239.078125 1720.390625 248.335938 1728.976562 255.429688 C 1737.570312 262.515625 1738.21875 269.414062 1738.21875 269.414062 M 1713.945312 178.804688 C 1713.945312 178.804688 1716.953125 187.078125 1725.757812 192.398438 C 1734.78125 197.710938 1748.3125 214.453125 1749.382812 217.414062 C 1750.421875 220.984375 1755.609375 246.757812 1755.179688 249.515625 " transform="matrix(0.5,0,0,0.5,0,0)"/>
<path style="fill-rule:nonzero;fill:rgb(93.72549%,49.019608%,0%);fill-opacity:1;stroke-width:2.25;stroke-linecap:round;stroke-linejoin:round;stroke:rgb(0%,0%,0%);stroke-opacity:1;stroke-miterlimit:4;" d="M 1659.1875 191.609375 C 1659.828125 194.757812 1646.515625 210.710938 1664.765625 229.429688 C 1648.226562 247.9375 1648.234375 250.304688 1648.234375 250.304688 C 1648.234375 250.304688 1657.46875 255.03125 1674 242.03125 C 1701.273438 272.765625 1692.1875 286.820312 1692.1875 286.820312 " transform="matrix(0.5,0,0,0.5,0,0)"/>
<path style="fill-rule:nonzero;fill:rgb(93.72549%,49.019608%,0%);fill-opacity:1;stroke-width:2.25;stroke-linecap:round;stroke-linejoin:round;stroke:rgb(0%,0%,0%);stroke-opacity:1;stroke-miterlimit:4;" d="M 1690.015625 265.132812 C 1690.015625 265.132812 1687.5 261.828125 1691.984375 249.507812 C 1696.015625 253.960938 1700.5 254.914062 1702.46875 256.71875 C 1704.429688 258.515625 1725.023438 261.25 1726.328125 273.875 M 1714.226562 149.429688 C 1714.226562 148.507812 1710.078125 140.34375 1694.609375 150.546875 C 1702.898438 151.007812 1711.085938 155.367188 1714.226562 149.429688 Z M 1861.867188 186.75 C 1862.625 187.101562 1908.085938 196.132812 1923.242188 191.617188 C 1903.921875 215.242188 1865.28125 199.257812 1865.28125 199.257812 C 1884.21875 204.476562 1884.976562 204.125 1891.039062 208.992188 C 1892.9375 213.507812 1856.1875 211.421875 1844.0625 205.171875 C 1877.78125 214.898438 1878.539062 214.203125 1879.679688 218.023438 C 1881.195312 223.234375 1824.359375 216.632812 1819.4375 209.6875 C 1834.59375 220.453125 1842.929688 222.539062 1851.257812 227.40625 C 1841.03125 231.578125 1822.09375 235.742188 1787.234375 213.15625 C 1833.070312 251.382812 1874.367188 248.953125 1880.8125 255.898438 C 1864.898438 277.445312 1803.148438 243.046875 1774.734375 225.671875 C 1746.320312 208.296875 1836.867188 267.71875 1845.203125 266.671875 C 1841.03125 272.578125 1811.101562 267.367188 1809.210938 264.585938 M 1873.609375 226.710938 C 1868.3125 227.40625 1852.398438 227.40625 1850.125 227.0625 M 1532.257812 166.984375 C 1532.257812 166.984375 1566.835938 183.726562 1581.4375 182.546875 C 1577.570312 185.890625 1571.773438 187.273438 1571.773438 187.273438 C 1575.429688 188.648438 1585.523438 193.578125 1600.765625 190.421875 C 1597.117188 193.773438 1592.390625 197.515625 1592.390625 197.515625 C 1592.390625 197.515625 1605.492188 202.046875 1620.3125 194.953125 C 1615.804688 200.078125 1613.226562 203.820312 1613.226562 203.820312 L 1623.53125 204.40625 " transform="matrix(0.5,0,0,0.5,0,0)"/>
</g>
</svg>

<svg xmlns="http://www.w3.org/2000/svg" width="2100" height="1400"><path fill="#198a00" d="M0 0h2100v1400H0z"/><path fill="#de2010" d="M1350 500h500v900h-500z"/><path fill="#ef7d00" d="M1600 500h500v900h-500z"/><path d="M1600 500h250v900h-250z"/><g fill="#ef7d00" stroke="#000" stroke-width="2.25" stroke-linecap="round" stroke-linejoin="round"><path d="M1916.425 168.334s86.002-33.706 94.334-40.656c3.79 4.17-34.476 46.564-108.731 62.2 67.435-14.594 125.023-60.462 136.768-59.072 3.41.695 2.65 44.826-151.923 83.05 106.837-25.715 168.97-72.973 168.213-67.76.757 1.042-10.608 37.18-104.185 65.327 26.141-5.56 96.987-45.174 96.23-37.529 2.272 3.128-68.574 86.524-196.627 59.421 102.292 24.324 168.59-34.402 178.062-33.36 1.895.348-18.944 51.429-147.753 54.556 61.755-5.907 43.946-.348 43.946-.348s-36.37 26.061-80.317 8.341c34.476 8.688 38.264 9.034 39.021 11.814-2.272 3.474-30.687 8.687-57.964-4.866 21.973 8.34 41.674 9.73 42.052 12.858-.378 1.042-14.395 8.34-26.897 3.128-12.502-5.214-127.676-70.193-127.676-70.193l196.249-49.343zM1685.713 344.105c-17.257 0-17.734 14.085-17.734 14.085s-1.424 1.017-.474 7.844c2.85-4.649 4.275-6.1 4.275-6.1 1.9.29 9.816 2.468 22.324-6.535-11.4 10.89-4.59 14.957-4.59 14.957s-2.692 8.568 6.014 10.311c-2.69-3.486-1.107-6.535-1.107-6.535s12.19-1.161 11.4-14.811c.475 12.341 7.758 15.391 7.758 15.391s0 6.825 7.915 7.407c-4.273-3.486-3.325-8.859-3.325-8.859s10.292-6.825 1.584-18.443c5.225-2.76 9.5-10.455 9.5-10.455s-7.124-2.76-10.449-5.082c-1.585-3.051-.158-19.75-.158-19.75l-4.276-21.639-12.192 33.693c.474-4.793.792 14.521-16.465 14.521z"/><path d="M1770.944 295.514c.378.348 12.882 13.206 25.004 12.51 4.545-3.474-9.472-11.119-9.472-12.857 4.925 4.17 25.762 20.501 39.023 14.594 5.303-6.95-9.472-5.906-25.763-24.671 11.365 6.95 39.78 22.239 53.04 16.332 5.685-5.56-29.551-22.936-41.296-36.487l-30.307-14.246-41.296 30.927zM1724.345 189.879s14.017-7.645 70.088-3.823c6.062.695 38.264-10.077 48.494-13.204 16.29-2.78 68.193-13.205 82.212-22.935 9.85-1.042-2.654 16.68-15.154 20.85-13.262 5.56-61.376 20.849-78.425 18.764 20.459.348 9.094 15.637-25.005 8.34 16.292 8.34 10.23 9.73 10.23 9.73s-28.792 1.39-36.37-4.518c19.323 6.602 11.366 9.035 11.366 9.035s-19.7 1.737-28.794-2.085c14.017 3.822 6.82 6.255 6.82 6.255s-11.365 1.737-20.837-1.39c-9.47-3.128-23.868-25.02-24.625-25.02zM1746.827 302.716l2.06 33.982s-1.11 1.743-2.06 2.76c-.95 1.016-26.283-3.632-22.8 14.085 0 7.262.16 9.149 5.543 13.215-1.426-4.792-.95-8.131-.95-8.131s7.124 3.921 14.091-6.825c-4.75 10.6-1.426 14.376-.317 14.667 1.109 1.889-1.899 10.455 7.6 10.31-3.64-3.195-1.9-7.843-1.9-7.843s9.976-1.45 6.492-18.006c3.642-3.34 5.066-.145 5.066-.145s1.108 9.874 9.816 7.842c3.96 2.032-.632 7.405-.632 7.405s6.332.146 8.232-4.792c1.9-4.937 4.117-13.796-6.334-17.426-1.266-3.484 4.118-3.775 4.118-3.775s6.65 2.032 8.549 5.082c1.9 3.05 1.267-7.986-6.966-9.149-10.133-.291-10.766-2.178-10.766-2.613 0-.437-1.741-24.687-2.533-31.658z"/><path d="M1782.069 331.675c.124-1.558-17.286-23.059-12.869-25.838 4.415.833 11.656 10.613 17.522 7.438-1.778-3.811-7.018-1.665-12.97-11.423-5.948-11.032-6.817-27.593-27.654-45.658 13.49 19.116 44.092 30.322 45.388 24.748 1.296-5.575-26.946-26.653-25.5-31.733 5.617 10.433 33.975 33.678 54.868 31.753 1.432-4.475-17.11-13.508-21.881-21.942-13.347-8.224-49.065-36.462-49.78-43.011-12.998-17.387-21.111-22.647-24.89-24.65-1.46-1.577-1.826-3.085-2.112-4.044-8.068-17.446 2.619-23.11 8.874-23.949 5.147-.524 6.642.182 10.346-1.463-4.386-1.574-8.77-3.046-13.156-4.62 5.719 3.848 20.325.46 17.16 11.542 6.403-2.235 20.03-17.104-15.444-20.46-11.545-12.147-59.009-19.128-70.89 33.888.95.743 1.446 1.354 4.465 3.422-14.989-6.663-55.421-11.802-69.992-13.961-39.364-10.417-80.244-35.52-84.174-32.433-5.256 2.14 23.784 26.92 22.274 27.468-25.18-13.466-48.182-23.006-69.585-31.687-15.058-5.163-30.14-17.182-31.802-14.896-5.542 10.53 24.14 36.996 29.662 40.11 5.523 2.978 48.947 21.453 48.307 21.684-65.406-27.229-76.372-32.165-79.654-35.305-5.764-1.19-19.807-18.581-23.72-17.463-2.143 1.93 2.154 29.41 33.364 41.744 5.087 3.4 66.9 23.739 66.295 25.333-.15.399-70.798-26.743-73.542-27.714-13.621-4.899-30.334-22.07-33.459-20.14-2.982 1.753 7.705 20.339 21.468 26.168 7.215 2.92 34.887 15.492 59.819 23.493 1.591.527-44.815-16.141-67.126-24.693-10.116-5.15-14.88-11.568-16.42-10.187-2.28 1.38 3.682 28.837 75.38 44.33 1.888.737 25.237-5.074 24.083-4.303-.289.193-23.186 4.765-25.415 4.608-1.984-.278-14.528 1.362-14.755 1.959-.758 1.857 4.545 11.688 41.564 9.638 4.733-.261 30.416-8.579 28.258-6.79-1.08.896-34.973 10.997-37.554 11.196-2.242.291-14.15 1.433-14.59 2.595-.537 1.584 8.814 8.58 28.694 9.702 17.602.857 51.05-9.865 50.378-9.17-.67.695-32.244 10.618-33.07 11.223-1.142.593-12.704 1.168-13.11 1.982-.942 2.026 16.678 17.138 68.787 1.01-5.235 6.486-30.493 10.921-30.457 12.09-.117.847 5.565 5.882 14.396 7.684 4.415.9 10.46.717 15.982-.083 9.918-1.821 20.37-5.42 33.65-16.678 1.587 3.533-33.174 19.668-31.542 21.207 7.537 6.41 32.576-.827 34.216-1.667 1.641-.842 48.215-24.93 48.055-27.718.723 3.573-60.046 33.859-59.39 35.101 3.9 5.71 24.66-.3 25.652-.825.99-.523 26.493-13.16 27.192-13.532.697-.373-29.973 16.464-27.24 19.027-1.321 10.933 47.898-7.546 51.755-9.847 1.929-1.15-23.644 10.313-23.712 15.759 8.235 12.77 34.603 8.719 38.67 5.91 2.035-1.405-2.393 9.486-.967 8.497.497-.205 5.735-5.886 7.75-9.998-.643 3.568-3.534 9.189-5.22 15.638-1.69 6.449-2.173 13.726-4.49 21.458-.532 3.396 16.247-6.64 13.81-30.631 1.436 12.479-5.299 35.813-3.536 37.026 3.525 2.426 13.27-11.621 14.255-21.12 2.894 4.798 8.968 14.813 14.193 17.117-.569-7.258.1-6.925-2.252-14.059 1.357-9.47 1.546-22.578 1.874-37.38 14.199 24.948 19.862 35.483 15.895 54.588 4.222 1.615 10.966-13.335 10.422-21.03 5.422 21.381 28.825 24.587 29.197 23.965z"/><path d="M1545.575 173.288s-9.664 6.697-21.69 6.303c3.006 11.03 27.918 2.56 27.918 2.56s-12.027 12.213-20.617 14.183c5.154 3.94 26.845 2.56 30.497.591 3.65-1.97 10.093-9.652 10.093-9.652s-22.335 23.637-25.557 23.44c-.43 2.758 23.41 1.773 28.35-2.363 4.938-4.137 17.394-10.243 17.394-10.243s-32.643 20.88-34.147 20.88c12.241 2.954 36.724-3.546 52.402-12.41-23.195 14.182-25.34 16.743-37.153 21.47 10.524 2.167 15.89 8.668 51.542-5.515 20.403-8.864 31.998-25.016 31.998-25.016-12.67 15.561-32.644 28.76-54.762 41.76-1.29 2.363 23.622 12.014 55.406-18.32M1718.241 239.078s2.148 9.258 10.738 16.35c8.592 7.09 9.236 13.984 9.236 13.984M1713.947 178.803s3.006 8.273 11.811 13.592c9.02 5.318 22.552 22.06 23.625 25.016 1.04 3.576 6.227 29.35 5.798 32.106"/><path d="M1659.184 191.606c.644 3.152-12.672 19.107 5.582 37.82-16.537 18.515-16.535 20.88-16.535 20.88s9.234 4.727 25.77-8.274c27.274 30.73 18.186 44.792 18.186 44.792"/><path d="M1690.014 265.13s-2.512-3.3 1.967-15.626c4.033 4.456 8.518 5.407 10.484 7.211 1.965 1.804 22.558 4.538 23.867 17.16M1714.223 149.432c0-.927-4.147-9.088-19.616 1.113 8.29.464 16.48 4.822 19.616-1.113zM1861.869 186.751c.757.348 46.22 9.382 61.375 4.865-19.322 23.63-57.965 7.645-57.965 7.645 18.942 5.212 19.701 4.865 25.761 9.73 1.895 4.517-34.854 2.432-46.978-3.823 33.719 9.73 34.476 9.035 35.614 12.857 1.517 5.212-55.314-1.39-60.239-8.34 15.155 10.772 23.49 12.857 31.824 17.722-10.23 4.17-29.171 8.339-64.027-14.247 45.84 38.224 87.137 35.79 93.579 42.74-15.912 21.545-77.667-12.856-106.082-30.23-28.414-17.375 62.133 42.046 70.47 41.003-4.17 5.907-34.098.695-35.993-2.085M1873.613 226.712c-5.302.695-21.214.695-23.487.348M1532.26 166.984s34.576 16.743 49.18 15.562c-3.866 3.348-9.666 4.727-9.666 4.727 3.652 1.379 13.746 6.303 28.995 3.152-3.652 3.348-8.377 7.091-8.377 7.091s13.101 4.53 27.92-2.56c-4.51 5.12-7.089 8.863-7.089 8.863l10.31.591"/></g></svg>
